brandFactory_export/1.Light/Ubicacion mapa _1Light.svg

<?xml version="1.0" encoding="UTF-8"?>
<svg width="24px" height="24px" viewBox="0 0 24 24" version="1.1" xmlns="http://www.w3.org/2000/svg" xmlns:xlink="http://www.w3.org/1999/xlink">
    <title>1.Light/Ubicacion mapa _1Light</title>
    <g id="Symbols" stroke="none" stroke-width="1" fill="none" fill-rule="evenodd">
        <g id="1.Light/Ubicacion-mapa-_1Light" fill="#5CB615" fill-rule="nonzero">
            <path d="M18.205042,20.4067227 L22.4033613,22.2588235 L20.0436975,14.0067227 L17.3378151,15.3579832 L17.3579832,15.4689076 L18.205042,20.4067227 Z M3.9092437,14.0268908 L1.3210084,22.2487395 L5.51932773,20.4268908 L6.11428571,15.2739496 L3.9092437,14.0268908 L3.9092437,14.0268908 Z M11.3781513,19.5159664 C10.7092437,18.8134454 9.35798319,17.1394958 8.04369748,15.112605 L7.08571429,15.3882353 L7.06554622,15.5563025 L6.50756303,20.4369748 L11.3546218,22.4235294 L11.3781513,19.5159664 L11.3781513,19.5159664 Z M7.37142857,2.54789916 C6.31932773,3.59327731 5.78151261,5.1092437 5.77812104,7.05882353 C5.76470588,10.7697479 10.2420168,16.7495798 11.8420168,18.5680672 C13.4487395,16.7462185 17.9495798,10.7630252 17.9597263,7.09579832 C17.9731092,3.16302521 15.8151261,0.994957983 11.8857143,0.98487395 L11.8554622,0.98487395 C9.92268908,0.98487395 8.41344538,1.5092437 7.37142857,2.54789916 Z M16.3563025,15.4588235 L15.589916,15.2168067 C14.3226891,17.1428571 13.0352941,18.7394958 12.3596639,19.4588235 L12.3394958,22.4033613 L17.210084,20.4537815 L16.3563025,15.4588235 L16.3563025,15.4588235 Z M20.8302521,13.1663866 L23.6403361,22.994958 C23.7142857,23.2571429 23.5630252,23.5294118 23.3008403,23.6033613 C23.189916,23.6336134 23.0756303,23.6268908 22.9680672,23.5798319 L17.7680672,21.287395 L12.0302521,23.5865546 C11.9361345,23.623651 11.8319328,23.6302521 11.7344538,23.610084 L11.5966387,23.5764706 L6,21.2907563 L0.722689076,23.5831933 C0.47394958,23.6907563 0.18487395,23.5764706 0.0739495798,23.3277311 C0.0268907563,23.2201681 0.0201680672,23.0957983 0.0571428571,22.9815126 L3.15294118,13.1529412 C3.19663866,13.0117647 3.30420168,12.897479 3.44201681,12.8436975 C3.57983193,12.789916 3.73445378,12.8 3.86554622,12.8739496 L6.70252101,14.4773109 L7.49915966,14.2453782 C6.04705882,11.8621849 4.78991597,9.15966387 4.79327731,7.05546218 C4.8,4.86722689 5.45210084,3.06890756 6.67563025,1.85210084 C7.89579832,0.638655462 9.68739496,0 11.8588235,0 L11.892437,0 C16.3193277,0.0134453782 18.9579832,2.66890756 18.9445378,7.09915966 C18.9378151,9.21008403 17.6302521,11.9529412 16.1411765,14.3563025 L16.7462185,14.5512605 L20.1344538,12.8605042 C20.2655462,12.7966387 20.4201681,12.7932773 20.5512605,12.8504202 C20.6890756,12.9109244 20.7865546,13.0252101 20.8302521,13.1663866 Z M10.2789916,6.65546218 C10.2789916,7.71092437 10.8134454,8.24537815 11.8689076,8.24537815 C12.9243697,8.24537815 13.4588235,7.71092437 13.4588235,6.65546218 C13.4588235,5.6 12.9243697,5.06554622 11.8689076,5.06554622 C10.8168067,5.06554622 10.2789916,5.6 10.2789916,6.65546218 Z M14.4436975,6.65546218 C14.4436975,8.24201681 13.4554622,9.2302521 11.8689076,9.2302521 C10.2823529,9.2302521 9.29747899,8.24537815 9.29747899,6.65546218 C9.29747899,5.06554622 10.2823529,4.08067227 11.8689076,4.08067227 C13.4554622,4.08067227 14.4436975,5.06890756 14.4436975,6.65546218 Z" id="Ubicacion-mapa-_1Light"></path>
        </g>
    </g>
</svg>

<svg width="24" height="24" viewBox="0 0 24 24" xmlns="http://www.w3.org/2000/svg"><path d="M18.205 20.407l4.198 1.852-2.36-8.252-2.705 1.351.02.11.847 4.939zm-14.296-6.38l-2.588 8.222 4.198-1.822.595-5.153-2.205-1.247zm7.47 5.489c-.67-.703-2.021-2.377-3.335-4.403l-.958.275-.02.168-.558 4.881 4.847 1.987.023-2.908zM7.37 2.548c-1.052 1.045-1.59 2.561-1.593 4.51-.013 3.712 4.464 9.692 6.064 11.51 1.607-1.822 6.108-7.805 6.118-11.472.013-3.933-2.145-6.101-6.074-6.111h-.03c-1.933 0-3.443.524-4.485 1.563zm8.985 12.91l-.766-.241c-1.267 1.926-2.555 3.522-3.23 4.242l-.02 2.944 4.87-1.95-.854-4.994zm4.474-2.292l2.81 9.829a.492.492 0 01-.672.585l-5.2-2.293-5.738 2.3a.523.523 0 01-.296.023l-.137-.034L6 21.291.723 23.583a.491.491 0 01-.666-.602l3.096-9.828a.49.49 0 01.713-.28l2.837 1.604.796-.232c-1.452-2.383-2.71-5.085-2.706-7.19.007-2.188.66-3.986 1.883-5.203C7.896.64 9.687 0 11.859 0h.033c4.427.013 7.066 2.669 7.053 7.1-.007 2.11-1.315 4.853-2.804 7.256l.605.195 3.388-1.69a.502.502 0 01.417-.01c.138.06.236.174.28.315zM10.28 6.656c0 1.055.534 1.59 1.59 1.59 1.055 0 1.59-.535 1.59-1.59 0-1.056-.535-1.59-1.59-1.59-1.052 0-1.59.534-1.59 1.59zm4.165 0c0 1.586-.989 2.574-2.575 2.574-1.587 0-2.572-.985-2.572-2.575 0-1.59.985-2.574 2.572-2.574 1.586 0 2.575.988 2.575 2.574z" fill="#5CB615" fill-rule="nonzero"/></svg>
